packages/katcn/src/icons/svg/calculate-solid.svg

<svg width="24" height="25" viewBox="0 0 24 25" fill="none" xmlns="http://www.w3.org/2000/svg">
<path d="M17.6219 2.20801H6.27861C3.89055 2.20801 2 4.10801 2 6.50801V18.008C2 20.308 3.89055 22.208 6.27861 22.208H17.7214C20.1095 22.208 22 20.308 22 17.908V6.50801C21.9005 4.10801 20.01 2.20801 17.6219 2.20801Z" fill="black"/>
<path d="M6.3 9.50801H7.3V10.508C7.3 11.108 7.7 11.508 8.3 11.508C8.9 11.508 9.3 11.108 9.3 10.508V9.50801H10.3C10.9 9.50801 11.3 9.10801 11.3 8.50801C11.3 7.90801 10.9 7.50801 10.3 7.50801H9.3V6.50801C9.3 5.90801 8.9 5.50801 8.3 5.50801C7.7 5.50801 7.3 5.90801 7.3 6.50801V7.50801H6.3C5.7 7.50801 5.3 7.90801 5.3 8.50801C5.3 9.10801 5.7 9.50801 6.3 9.50801Z" fill="white"/>
<path d="M17.7 14.508H14.4C13.8 14.508 13.4 14.908 13.4 15.508C13.4 16.108 13.8 16.508 14.4 16.508H17.7C18.3 16.508 18.7 16.108 18.7 15.508C18.7 14.908 18.3 14.508 17.7 14.508Z" fill="white"/>
<path d="M18.4 5.80801C18 5.40801 17.4 5.40801 17 5.80801L5.6 17.208C5.2 17.608 5.2 18.208 5.6 18.608C5.8 18.808 6.1 18.908 6.3 18.908C6.5 18.908 6.8 18.808 7 18.608L18.4 7.20801C18.8 6.80801 18.8 6.20801 18.4 5.80801Z" fill="white"/>
</svg>

<svg xmlns="http://www.w3.org/2000/svg" fill="none" viewBox="0 0 24 25"><path fill="#000" d="M17.622 2.208H6.279C3.89 2.208 2 4.108 2 6.508v11.5c0 2.3 1.89 4.2 4.279 4.2H17.72c2.389 0 4.279-1.9 4.279-4.3v-11.4c-.1-2.4-1.99-4.3-4.378-4.3"/><path fill="#fff" d="M6.3 9.508h1v1c0 .6.4 1 1 1s1-.4 1-1v-1h1c.6 0 1-.4 1-1s-.4-1-1-1h-1v-1c0-.6-.4-1-1-1s-1 .4-1 1v1h-1c-.6 0-1 .4-1 1s.4 1 1 1m11.4 5h-3.3c-.6 0-1 .4-1 1s.4 1 1 1h3.3c.6 0 1-.4 1-1s-.4-1-1-1m.7-8.7c-.4-.4-1-.4-1.4 0l-11.4 11.4c-.4.4-.4 1 0 1.4.2.2.5.3.7.3s.5-.1.7-.3l11.4-11.4c.4-.4.4-1 0-1.4"/></svg>
